src/images/heart.svg

<svg viewBox="0 -28 512.001 512" xmlns="http://www.w3.org/2000/svg"><path d="m256 455.515625c-7.289062 0-14.316406-2.640625-19.792969-7.4375-20.683593-18.085937-40.625-35.082031-58.21875-50.074219l-.089843-.078125c-51.582032-43.957031-96.125-81.917969-127.117188-119.3125-34.644531-41.804687-50.78125-81.441406-50.78125-124.742187 0-42.070313 14.425781-80.882813 40.617188-109.292969 26.503906-28.746094 62.871093-44.578125 102.414062-44.578125 29.554688 0 56.621094 9.34375 80.445312 27.769531 12.023438 9.300781 22.921876 20.683594 32.523438 33.960938 9.605469-13.277344 20.5-24.660157 32.527344-33.960938 23.824218-18.425781 50.890625-27.769531 80.445312-27.769531 39.539063 0 75.910156 15.832031 102.414063 44.578125 26.191406 28.410156 40.613281 67.222656 40.613281 109.292969 0 43.300781-16.132812 82.9375-50.777344 124.738281-30.992187 37.398437-75.53125 75.355469-127.105468 119.308594-17.625 15.015625-37.597657 32.039062-58.328126 50.167969-5.472656 4.789062-12.503906 7.429687-19.789062 7.429687zm-112.96875-425.523437c-31.066406 0-59.605469 12.398437-80.367188 34.914062-21.070312 22.855469-32.675781 54.449219-32.675781 88.964844 0 36.417968 13.535157 68.988281 43.882813 105.605468 29.332031 35.394532 72.960937 72.574219 123.476562 115.625l.09375.078126c17.660156 15.050781 37.679688 32.113281 58.515625 50.332031 20.960938-18.253907 41.011719-35.34375 58.707031-50.417969 50.511719-43.050781 94.136719-80.222656 123.46875-115.617188 30.34375-36.617187 43.878907-69.1875 43.878907-105.605468 0-34.515625-11.605469-66.109375-32.675781-88.964844-20.757813-22.515625-49.300782-34.914062-80.363282-34.914062-22.757812 0-43.652344 7.234374-62.101562 21.5-16.441406 12.71875-27.894532 28.796874-34.609375 40.046874-3.453125 5.785157-9.53125 9.238282-16.261719 9.238282s-12.808594-3.453125-16.261719-9.238282c-6.710937-11.25-18.164062-27.328124-34.609375-40.046874-18.449218-14.265626-39.34375-21.5-62.097656-21.5zm0 0"/></svg>

<?xml version="1.0" encoding="UTF-8"?>
<svg width="513px" height="484px" viewBox="0 0 513 484" xmlns="http://www.w3.org/2000/svg" xmlns:xlink="http://www.w3.org/1999/xlink" version="1.1">
 <!-- Generated by Pixelmator Pro 2.3 -->
 <path id="Путь" d="M256 455.516 C248.711 455.516 241.684 452.875 236.207 448.078 215.523 429.992 195.582 412.996 177.988 398.004 L177.898 397.926 C126.316 353.969 81.773 316.008 50.781 278.613 16.137 236.809 0 197.172 0 153.871 0 111.801 14.426 72.988 40.617 44.578 67.121 15.832 103.488 0 143.031 0 172.586 0 199.652 9.344 223.477 27.77 235.5 37.07 246.398 48.453 256 61.73 265.605 48.453 276.5 37.07 288.527 27.77 312.352 9.344 339.418 0 368.973 0 408.512 0 444.883 15.832 471.387 44.578 497.578 72.988 512 111.801 512 153.871 512 197.172 495.867 236.809 461.223 278.609 430.23 316.008 385.691 353.965 334.117 397.918 316.492 412.934 296.52 429.957 275.789 448.086 270.316 452.875 263.285 455.516 256 455.516 Z M143.031 29.992 C111.965 29.992 83.426 42.391 62.664 64.906 41.594 87.762 29.988 119.355 29.988 153.871 29.988 190.289 43.523 222.859 73.871 259.477 103.203 294.871 146.832 332.051 197.348 375.102 L197.441 375.18 C215.102 390.23 235.121 407.293 255.957 425.512 276.918 407.258 296.969 390.168 314.664 375.094 365.176 332.043 408.801 294.871 438.133 259.477 468.477 222.859 482.012 190.289 482.012 153.871 482.012 119.355 470.406 87.762 449.336 64.906 428.578 42.391 400.035 29.992 368.973 29.992 346.215 29.992 325.32 37.227 306.871 51.492 290.43 64.211 278.977 80.289 272.262 91.539 268.809 97.324 262.73 100.777 256 100.777 249.27 100.777 243.191 97.324 239.738 91.539 233.027 80.289 221.574 64.211 205.129 51.492 186.68 37.227 165.785 29.992 143.031 29.992 Z M143.031 29.992" fill="#ffffff" fill-opacity="1" stroke="none"/>
</svg>
